; generated by PrusaSlicer 2.5.2+win64 on 2023-07-31 at 15:02:11 UTC

; 

; external perimeters extrusion width = 0.45mm
; perimeters extrusion width = 0.45mm
; infill extrusion width = 0.45mm
; solid infill extrusion width = 0.45mm
; top infill extrusion width = 0.42mm
; first layer extrusion width = 0.42mm

M73 P0 R0
M73 Q0 S0
M107
;TYPE:Custom
G90 ; Absolute Positioning
M83  ; extruder relative mode
M140 S80 ; set bed temp
M109 S160 ; Set extruder temp before bed level
M190 S80 ; wait for bed temp


G28 W ; home all without mesh bed level
G80 ; mesh bed leveling set 3x3, 5x5, or 7x7 in settings menu

G1 Y-3.0 Z0.6 F1000.0 ; go outside print area

M109 S240 ; wait for extruder temp

G92 E0.0
G1 Z0.2 E8 ; Purge Bubble
G1 X60.0 E9.0  F1000.0 ; intro line
G1 X100.0 E12.5  F1000.0 ; intro line
G92 E0.0
G21 ; set units to millimeters
G90 ; use absolute coordinates
M83 ; use relative distances for extrusion
M900 K0.11 ;
M107
;LAYER_CHANGE
;Z:0.2
;HEIGHT:0.2
;BEFORE_LAYER_CHANGE
G92 E0.0
;0.2




M73 P6 R0
M73 Q6 S0
G1 E-1.2 F1800
M73 P11 R0
M73 Q10 S0
G1 Z.2 F7200
;AFTER_LAYER_CHANGE
;0.2
G1 X122.604 Y99.237
G1 E1.2 F1800
M204 S1000
;TYPE:External perimeter
;WIDTH:0.38292
M73 P12 R0
M73 Q12 S0
G1 F900
M73 P13 R0
G1 X124.175 Y98.91 E.04219
;LAYER_CHANGE
;Z:0.4
;HEIGHT:0.2
;BEFORE_LAYER_CHANGE
G92 E0.0
;0.4




;WIPE_START
G1 F5760
G1 X122.604 Y99.237 E-.47643
;WIPE_END
G1 E-.72357 F1800
G1 Z.4 F7200
;AFTER_LAYER_CHANGE
;0.4
G1 X121.729 Y99.418
G1 E1.2 F1800
M204 S1500
;TYPE:Overhang perimeter
;WIDTH:0.357771
;HEIGHT:0.357771
M73 Q13 S0
G1 X121.871 Y99.387 E.00566
M204 S800
;TYPE:External perimeter
;WIDTH:0.38292
;HEIGHT:0.2
G1 F1200
G1 X124.173 Y98.909 E.06182
;WIDTH:0.389398
G1 X124.816 Y98.811 E.01741
M204 S1500
;TYPE:Overhang perimeter
;WIDTH:0.357771
;HEIGHT:0.357771
G1 F1800
G1 X125.072 Y98.78 E.01003
M204 S1000
;LAYER_CHANGE
;Z:0.6
;HEIGHT:0.2
;BEFORE_LAYER_CHANGE
G92 E0.0
;0.6




;WIPE_START
G1 F5760
M73 P14 R0
G1 X124.816 Y98.811 E-.07663
G1 X124.753 Y98.819 E-.01882
G1 X124.173 Y98.909 E-.17408
G1 X122.608 Y99.237 E-.47486
G1 X122.459 Y99.259 E-.04475
G1 X121.871 Y99.387 E-.17848
;WIPE_END
G1 E-.23238 F1800
G1 Z.6 F7200
;AFTER_LAYER_CHANGE
;0.6
G1 X121.473 Y99.462
G1 E1.2 F1800
M204 S800
;TYPE:External perimeter
;WIDTH:0.38292
G1 F1200
G1 X121.055 Y99.549 E.01122
M204 S1000
;WIPE_START
G1 F5760
M73 Q14 S0
G1 X121.473 Y99.462 E-.12674
;WIPE_END
G1 E-1.07326 F1800
G1 X125.403 Y98.721 F7200
G1 E1.2 F1800
M204 S800
;WIDTH:0.396468
G1 F1200
G1 X126.121 Y98.655 E.0197
M204 S1500
;TYPE:Overhang perimeter
;WIDTH:0.357771
;HEIGHT:0.357771
G1 F1800
M73 P15 R0
G1 X126.245 Y98.654 E.00484
M204 S1000
M106 S127.5
;LAYER_CHANGE
;Z:0.8
;HEIGHT:0.2
;BEFORE_LAYER_CHANGE
G92 E0.0
;0.8




;WIPE_START
G1 F5760
G1 X126.121 Y98.655 E-.03695
G1 X125.99 Y98.657 E-.03877
G1 X125.403 Y98.721 E-.17524
;WIPE_END
G1 E-.94904 F1800
G1 Z.8 F7200
;AFTER_LAYER_CHANGE
;0.8
G1 X120.788 Y99.565
G1 E1.2 F1800
M204 S800
;TYPE:External perimeter
;WIDTH:0.387462
M73 Q15 S0
G1 F1200
G1 X120.879 Y99.56 E.00243
M204 S1000
;WIPE_START
G1 F5760
G1 X120.788 Y99.565 E-.02708
;WIPE_END
G1 E-1.17292 F1800
G1 X126.461 Y98.641 F7200
G1 E1.2 F1800
M204 S800
;WIDTH:0.38292
M73 P16 R0
G1 F1200
G1 X127.078 Y98.628 E.01621
M204 S1500
;TYPE:Overhang perimeter
;WIDTH:0.357771
;HEIGHT:0.357771
M106 S178.5
G1 F1800
G1 X127.393 Y98.628 E.01226
M106 S127.5
M204 S1000
;LAYER_CHANGE
;Z:1
;HEIGHT:0.2
;BEFORE_LAYER_CHANGE
G92 E0.0
;1




;WIPE_START
G1 F5760
G1 X127.078 Y98.628 E-.09363
G1 X127.049 Y98.628 E-.00856
G1 X126.461 Y98.641 E-.17454
;WIPE_END
G1 E-.92328 F1800
G1 Z1 F7200
;AFTER_LAYER_CHANGE
;1
G1 X120.472 Y99.599
M73 Q16 S0
G1 E1.2 F1800
M204 S800
;TYPE:External perimeter
;WIDTH:0.387454
G1 F1200
G1 X120.563 Y99.593 E.00244
M204 S1000
;WIPE_START
G1 F5760
G1 X120.472 Y99.599 E-.02714
;WIPE_END
G1 E-1.17286 F1800
G1 X127.402 Y98.629 F7200
M73 P17 R0
G1 E1.2 F1800
M204 S800
;WIDTH:0.38292
G1 F1200
G1 X128.087 Y98.763 E.01834
M204 S1500
;TYPE:Overhang perimeter
;WIDTH:0.357771
;HEIGHT:0.357771
M106 S178.5
G1 F1800
M73 Q17 S0
G1 X128.228 Y98.791 E.00561
M106 S127.5
M204 S1000
;LAYER_CHANGE
;Z:1.2
;HEIGHT:0.2
;BEFORE_LAYER_CHANGE
G92 E0.0
;1.2




;WIPE_START
G1 F5760
G1 X128.087 Y98.763 E-.04281
G1 X127.402 Y98.629 E-.20711
;WIPE_END
G1 E-.95008 F1800
G1 Z1.2 F7200
;AFTER_LAYER_CHANGE
;1.2
G1 X120.247 Y99.627
G1 E1.2 F1800
M204 S800
;TYPE:External perimeter
;WIDTH:0.387438
M73 P18 R0
G1 F1200
G1 X120.052 Y99.657 E.00526
;WIDTH:0.38292
G1 X119.988 Y99.788 E.00385
M204 S1500
;TYPE:Overhang perimeter
;WIDTH:0.357771
;HEIGHT:0.357771
M106 S178.5
G1 F1800
G1 X119.872 Y101.137 E.05261
G1 X119.585 Y102.677 E.06092
G1 X119.255 Y104.244 E.06223
G1 X119.007 Y105.783 E.0606
M73 Q18 S0
G1 X118.967 Y107.206 E.05531
G1 X119.268 Y108.549 E.0535
G1 X120.015 Y109.664 E.05217
G1 X121.184 Y110.523 E.0564
G1 X122.611 Y111.096 E.05976
G1 X124.192 Y111.383 E.06246
M73 P19 R0
G1 X125.803 Y111.383 E.06263
G1 X127.384 Y111.096 E.06246
G1 X128.81 Y110.523 E.05976
G1 X129.982 Y109.662 E.05652
G1 X130.869 Y108.464 E.05792
G1 X131.443 Y107.038 E.05976
M73 Q19 S0
G1 X131.729 Y105.457 E.06246
G1 X131.729 Y103.845 E.06263
G1 X131.436 Y102.24 E.06342
G1 X130.869 Y100.838 E.0588
G1 X130.014 Y99.673 E.05615
M73 P20 R0
G1 X129.751 Y99.486 E.01253
G1 X129.055 Y99.052 E.03189
M106 S127.5
M204 S800
;TYPE:External perimeter
;WIDTH:0.394844
;HEIGHT:0.2
G1 F1200
G1 X128.848 Y98.922 E.00666
G1 X128.376 Y98.814 E.01318
M204 S1000
;LAYER_CHANGE
;Z:1.4
;HEIGHT:0.2
;BEFORE_LAYER_CHANGE
G92 E0.0
;1.4




;WIPE_START
G1 F5760
G1 X128.848 Y98.922 E-.14375
G1 X129.055 Y99.052 E-.07266
;WIPE_END
G1 E-.98359 F1800
G1 Z1.4 F7200
;AFTER_LAYER_CHANGE
;1.4
G1 X129.756 Y99.499
M73 Q20 S0
G1 E1.2 F1800
M204 S800
;WIDTH:0.38292
G1 F1200
G1 X130.053 Y99.726 E.00983
G1 X130.851 Y100.807 E.03532
G1 X131.443 Y102.268 E.04144
G1 X131.729 Y103.849 E.04223
G1 X131.729 Y105.453 E.04219
M73 P21 R0
G1 X131.434 Y107.065 E.04308
G1 X130.851 Y108.495 E.0406
G1 X130.053 Y109.576 E.03534
M73 Q21 S0
G1 X129.922 Y109.706 E.00485
G1 X128.806 Y110.524 E.03638
G1 X127.38 Y111.097 E.0404
G1 X125.8 Y111.383 E.04223
G1 X124.195 Y111.383 E.04219
M73 P22 R0
G1 X122.614 Y111.097 E.04223
G1 X121.188 Y110.524 E.0404
G1 X120.072 Y109.706 E.03638
G1 X119.955 Y109.587 E.00441
M73 Q22 S0
G1 X119.271 Y108.554 E.03255
G1 X118.971 Y107.24 E.03546
G1 X119.007 Y105.786 E.03825
G1 X119.255 Y104.244 E.04105
G1 X119.585 Y102.677 E.0421
M73 P23 R0
G1 X119.872 Y101.139 E.04114
G1 X119.984 Y99.808 E.03512
;WIDTH:0.416738
G1 X119.976 Y99.683 E.0036
M204 S1000
;LAYER_CHANGE
;Z:1.6
;HEIGHT:0.2
;BEFORE_LAYER_CHANGE
G92 E0.0
;1.6




;WIPE_START
G1 F5760
G1 X119.984 Y99.808 E-.03696
G1 X119.874 Y101.123 E-.39177
G1 X119.872 Y101.139 E-.00478
M73 Q23 S0
G1 X119.585 Y102.677 E-.46457
G1 X119.417 Y103.474 E-.24193
;WIPE_END
G1 E-.06 F1800
G1 Z1.6 F7200
;AFTER_LAYER_CHANGE
;1.6
G1 X119.8 Y99.65
G1 E1.2 F1800
M204 S800
;WIDTH:0.38292
M73 P24 R0
G1 F1200
G1 X119.779 Y99.687 E.00112
G1 X119.715 Y99.65 E.00194
G1 X119.779 Y99.613 E.00194
M204 S1000
;WIPE_START
G1 F5760
G1 X119.715 Y99.65 E-.02185
G1 X119.779 Y99.687 E-.02185
G1 X119.8 Y99.65 E-.01262
;WIPE_END
G1 E-1.14368 F1800
G1 X120.04 Y109.651 F7200
G1 E1.2 F1800
M204 S800
M73 Q24 S0
G1 F1200
G1 X120.019 Y109.688 E.00112
G1 X119.955 Y109.651 E.00194
G1 X120.019 Y109.614 E.00194
M204 S1000
;WIPE_START
G1 F5760
G1 X119.955 Y109.651 E-.02185
G1 X120.019 Y109.688 E-.02185
G1 X120.04 Y109.651 E-.01262
;WIPE_END
G1 E-1.14368 F1800
G1 X130.04 Y109.651 F7200
G1 E1.2 F1800
M204 S800
M73 P25 R0
G1 F1200
G1 X130.019 Y109.688 E.00112
G1 X129.955 Y109.651 E.00194
G1 X130.019 Y109.614 E.00194
M204 S1000
;WIPE_START
G1 F5760
G1 X129.955 Y109.651 E-.02185
G1 X130.019 Y109.688 E-.02185
G1 X130.04 Y109.651 E-.01262
;WIPE_END
G1 E-1.14368 F1800
G1 X130.04 Y99.651 F7200
G1 E1.2 F1800
M204 S800
M73 Q25 S0
G1 F1200
G1 X130.019 Y99.688 E.00112
G1 X129.955 Y99.651 E.00194
G1 X130.019 Y99.614 E.00194
M204 S1000
;LAYER_CHANGE
;Z:1.8
;HEIGHT:0.2
;BEFORE_LAYER_CHANGE
G92 E0.0
;1.8




;WIPE_START
G1 F5760
M73 P26 R0
G1 X129.955 Y99.651 E-.02185
G1 X130.019 Y99.688 E-.02185
G1 X130.04 Y99.651 E-.01262
;WIPE_END
G1 E-1.14368 F1800
G1 Z1.8 F7200
;AFTER_LAYER_CHANGE
;1.8
G1 X119.653 Y99.65
G1 E1.2 F1800
M204 S800
M73 Q26 S0
G1 F1200
G1 X119.632 Y99.687 E.00112
G1 X119.568 Y99.65 E.00194
G1 X119.632 Y99.613 E.00194
M204 S1000
;WIPE_START
G1 F5760
G1 X119.568 Y99.65 E-.02185
G1 X119.632 Y99.687 E-.02185
G1 X119.653 Y99.65 E-.01262
;WIPE_END
G1 E-1.14368 F1800
G1 X120.04 Y109.651 F7200
G1 E1.2 F1800
M204 S800
M73 P27 R0
G1 F1200
G1 X120.019 Y109.688 E.00112
G1 X119.955 Y109.651 E.00194
G1 X120.019 Y109.614 E.00194
M204 S1000
;WIPE_START
G1 F5760
G1 X119.955 Y109.651 E-.02185
G1 X120.019 Y109.688 E-.02185
G1 X120.04 Y109.651 E-.01262
;WIPE_END
G1 E-1.14368 F1800
G1 X130.04 Y109.651 F7200
G1 E1.2 F1800
M204 S800
M73 Q27 S0
G1 F1200
G1 X130.019 Y109.688 E.00112
G1 X129.955 Y109.651 E.00194
G1 X130.019 Y109.614 E.00194
M204 S1000
;WIPE_START
G1 F5760
G1 X129.955 Y109.651 E-.02185
G1 X130.019 Y109.688 E-.02185
G1 X130.04 Y109.651 E-.01262
;WIPE_END
G1 E-1.14368 F1800
G1 X130.04 Y99.651 F7200
M73 P28 R0
G1 E1.2 F1800
M204 S800
G1 F1200
M73 Q28 S0
G1 X130.019 Y99.688 E.00112
G1 X129.955 Y99.651 E.00194
G1 X130.019 Y99.614 E.00194
M204 S1000
;LAYER_CHANGE
;Z:2
;HEIGHT:0.2
;BEFORE_LAYER_CHANGE
G92 E0.0
;2




;WIPE_START
G1 F5760
G1 X129.955 Y99.651 E-.02185
G1 X130.019 Y99.688 E-.02185
G1 X130.04 Y99.651 E-.01262
;WIPE_END
G1 E-1.14368 F1800
G1 Z2 F7200
;AFTER_LAYER_CHANGE
;2
G1 X119.505 Y99.65
G1 E1.2 F1800
M204 S800
M73 P29 R0
G1 F1200
G1 X119.484 Y99.687 E.00112
G1 X119.42 Y99.65 E.00194
G1 X119.484 Y99.613 E.00194
M204 S1000
;WIPE_START
G1 F5760
G1 X119.42 Y99.65 E-.02185
G1 X119.484 Y99.687 E-.02185
G1 X119.505 Y99.65 E-.01262
;WIPE_END
G1 E-1.14368 F1800
G1 X120.04 Y109.651 F7200
G1 E1.2 F1800
M204 S800
M73 Q29 S0
G1 F1200
G1 X120.019 Y109.688 E.00112
G1 X119.955 Y109.651 E.00194
G1 X120.019 Y109.614 E.00194
M204 S1000
;WIPE_START
G1 F5760
G1 X119.955 Y109.651 E-.02185
G1 X120.019 Y109.688 E-.02185
G1 X120.04 Y109.651 E-.01262
;WIPE_END
G1 E-1.14368 F1800
G1 X130.04 Y109.651 F7200
M73 P30 R0
G1 E1.2 F1800
M204 S800
G1 F1200
M73 Q30 S0
G1 X130.019 Y109.688 E.00112
G1 X129.955 Y109.651 E.00194
G1 X130.019 Y109.614 E.00194
M204 S1000
;WIPE_START
G1 F5760
G1 X129.955 Y109.651 E-.02185
G1 X130.019 Y109.688 E-.02185
G1 X130.04 Y109.651 E-.01262
;WIPE_END
G1 E-1.14368 F1800
G1 X130.04 Y99.651 F7200
G1 E1.2 F1800
M204 S800
G1 F1200
M73 P31 R0
G1 X130.019 Y99.688 E.00112
G1 X129.955 Y99.651 E.00194
G1 X130.019 Y99.614 E.00194
M204 S1000
;LAYER_CHANGE
;Z:2.4
;HEIGHT:0.4
;BEFORE_LAYER_CHANGE
G92 E0.0
;2.4




;WIPE_START
G1 F5760
G1 X129.955 Y99.651 E-.02185
G1 X130.019 Y99.688 E-.02185
G1 X130.04 Y99.651 E-.01262
;WIPE_END
G1 E-1.14368 F1800
G1 Z2.4 F7200
;AFTER_LAYER_CHANGE
;2.4
G1 X119.215 Y99.65
G1 E1.2 F1800
M204 S800
;HEIGHT:0.2
M73 Q31 S0
G1 F1200
G1 X119.194 Y99.686 E.00112
G1 X119.13 Y99.65 E.00194
G1 X119.194 Y99.613 E.00194
M204 S1000
;LAYER_CHANGE
;Z:3.4
;HEIGHT:1
;BEFORE_LAYER_CHANGE
G92 E0.0
;3.4




;WIPE_START
G1 F5760
G1 X119.13 Y99.65 E-.02185
G1 X119.194 Y99.686 E-.02185
G1 X119.215 Y99.65 E-.01262
;WIPE_END
G1 E-1.14368 F1800
G1 Z3.4 F7200
;AFTER_LAYER_CHANGE
;3.4
M73 P32 R0
G1 X120.04 Y109.651
G1 E1.2 F1800
M204 S800
;HEIGHT:0.2
M73 Q32 S0
G1 F1200
G1 X120.019 Y109.688 E.00112
G1 X119.955 Y109.651 E.00194
G1 X120.019 Y109.614 E.00194
M204 S1000
;WIPE_START
G1 F5760
G1 X119.955 Y109.651 E-.02185
G1 X120.019 Y109.688 E-.02185
G1 X120.04 Y109.651 E-.01262
;WIPE_END
G1 E-1.14368 F1800
G1 X130.04 Y109.651 F7200
G1 E1.2 F1800
M204 S800
M73 P33 R0
G1 F1200
G1 X130.019 Y109.688 E.00112
G1 X129.955 Y109.651 E.00194
G1 X130.019 Y109.614 E.00194
M204 S1000
;LAYER_CHANGE
;Z:3.6
;HEIGHT:0.2
;BEFORE_LAYER_CHANGE
G92 E0.0
;3.6




;WIPE_START
G1 F5760
G1 X129.955 Y109.651 E-.02185
G1 X130.019 Y109.688 E-.02185
G1 X130.04 Y109.651 E-.01262
;WIPE_END
G1 E-1.14368 F1800
G1 Z3.6 F7200
;AFTER_LAYER_CHANGE
;3.6
M73 Q33 S0
G1 X120.04 Y109.651
G1 E1.2 F1800
M204 S800
G1 F1200
M73 P34 R0
G1 X120.019 Y109.688 E.00112
G1 X119.955 Y109.651 E.00194
G1 X120.019 Y109.614 E.00194
M204 S1000
;WIPE_START
G1 F5760
G1 X119.955 Y109.651 E-.02185
G1 X120.019 Y109.688 E-.02185
G1 X120.04 Y109.651 E-.01262
;WIPE_END
G1 E-1.14368 F1800
G1 X130.04 Y109.651 F7200
G1 E1.2 F1800
M204 S800
M73 Q34 S0
G1 F1200
G1 X130.019 Y109.688 E.00112
G1 X129.955 Y109.651 E.00194
G1 X130.019 Y109.614 E.00194
M204 S1000
;LAYER_CHANGE
;Z:4
;HEIGHT:0.4
;BEFORE_LAYER_CHANGE
G92 E0.0
;4




;WIPE_START
G1 F5760
G1 X129.955 Y109.651 E-.02185
G1 X130.019 Y109.688 E-.02185
G1 X130.04 Y109.651 E-.01262
;WIPE_END
G1 E-1.14368 F1800
G1 Z4 F7200
;AFTER_LAYER_CHANGE
;4
G1 X120.04 Y109.651
G1 E1.2 F1800
M204 S800
;HEIGHT:0.2
M73 P35 R0
G1 F1200
M73 Q35 S0
G1 X120.019 Y109.688 E.00112
G1 X119.955 Y109.651 E.00194
G1 X120.019 Y109.614 E.00194
M204 S1000
;WIPE_START
G1 F5760
G1 X119.955 Y109.651 E-.02185
G1 X120.019 Y109.688 E-.02185
G1 X120.04 Y109.651 E-.01262
;WIPE_END
G1 E-1.14368 F1800
G1 X130.04 Y109.651 F7200
G1 E1.2 F1800
M204 S800
G1 F1200
M73 P36 R0
G1 X130.019 Y109.688 E.00112
G1 X129.955 Y109.651 E.00194
G1 X130.019 Y109.614 E.00194
M204 S1000
;LAYER_CHANGE
;Z:4.4
;HEIGHT:0.4
;BEFORE_LAYER_CHANGE
G92 E0.0
;4.4




;WIPE_START
G1 F5760
G1 X129.955 Y109.651 E-.02185
G1 X130.019 Y109.688 E-.02185
G1 X130.04 Y109.651 E-.01262
;WIPE_END
G1 E-1.14368 F1800
G1 Z4.4 F7200
;AFTER_LAYER_CHANGE
;4.4
G1 X118.513 Y99.653
G1 E1.2 F1800
M204 S800
;HEIGHT:0.2
M73 Q36 S0
G1 F1200
G1 X118.492 Y99.69 E.00112
G1 X118.428 Y99.653 E.00194
G1 X118.492 Y99.616 E.00194
M204 S1000
;LAYER_CHANGE
;Z:4.6
;HEIGHT:0.2
;BEFORE_LAYER_CHANGE
G92 E0.0
;4.6




;WIPE_START
G1 F5760
G1 X118.428 Y99.653 E-.02185
G1 X118.492 Y99.69 E-.02185
G1 X118.513 Y99.653 E-.01262
;WIPE_END
G1 E-1.14368 F1800
G1 Z4.6 F7200
;AFTER_LAYER_CHANGE
;4.6
M73 P37 R0
G1 X120.04 Y109.651
G1 E1.2 F1800
M204 S800
M73 Q37 S0
G1 F1200
G1 X120.019 Y109.688 E.00112
G1 X119.955 Y109.651 E.00194
G1 X120.019 Y109.614 E.00194
M204 S1000
;WIPE_START
G1 F5760
G1 X119.955 Y109.651 E-.02185
G1 X120.019 Y109.688 E-.02185
G1 X120.04 Y109.651 E-.01262
;WIPE_END
G1 E-1.14368 F1800
G1 X130.04 Y109.651 F7200
G1 E1.2 F1800
M204 S800
M73 P38 R0
G1 F1200
G1 X130.019 Y109.688 E.00112
G1 X129.955 Y109.651 E.00194
G1 X130.019 Y109.614 E.00194
M204 S1000
;WIPE_START
G1 F5760
G1 X129.955 Y109.651 E-.02185
G1 X130.019 Y109.688 E-.02185
G1 X130.04 Y109.651 E-.01262
;WIPE_END
G1 E-1.14368 F1800
G1 X130.04 Y99.651 F7200
M73 Q38 S0
G1 E1.2 F1800
M204 S800
G1 F1200
G1 X130.019 Y99.688 E.00112
G1 X129.955 Y99.651 E.00194
G1 X130.019 Y99.614 E.00194
M204 S1000
;LAYER_CHANGE
;Z:4.8
;HEIGHT:0.2
;BEFORE_LAYER_CHANGE
G92 E0.0
;4.8




;WIPE_START
G1 F5760
G1 X129.955 Y99.651 E-.02185
G1 X130.019 Y99.688 E-.02185
G1 X130.04 Y99.651 E-.01262
;WIPE_END
G1 E-1.14368 F1800
G1 Z4.8 F7200
;AFTER_LAYER_CHANGE
;4.8
G1 X120.04 Y109.651
M73 P39 R0
G1 E1.2 F1800
M204 S800
M73 Q39 S0
G1 F1200
G1 X120.019 Y109.688 E.00112
G1 X119.955 Y109.651 E.00194
G1 X120.019 Y109.614 E.00194
M204 S1000
;WIPE_START
G1 F5760
G1 X119.955 Y109.651 E-.02185
G1 X120.019 Y109.688 E-.02185
G1 X120.04 Y109.651 E-.01262
;WIPE_END
G1 E-1.14368 F1800
G1 X130.04 Y109.651 F7200
G1 E1.2 F1800
M204 S800
M73 P40 R0
G1 F1200
G1 X130.019 Y109.688 E.00112
G1 X129.955 Y109.651 E.00194
G1 X130.019 Y109.614 E.00194
M204 S1000
;WIPE_START
G1 F5760
G1 X129.955 Y109.651 E-.02185
G1 X130.019 Y109.688 E-.02185
G1 X130.04 Y109.651 E-.01262
;WIPE_END
G1 E-1.14368 F1800
G1 X130.04 Y99.651 F7200
M73 Q40 S0
G1 E1.2 F1800
M204 S800
G1 F1200
G1 X130.019 Y99.688 E.00112
G1 X129.955 Y99.651 E.00194
G1 X130.019 Y99.614 E.00194
M204 S1000
;LAYER_CHANGE
;Z:5
;HEIGHT:0.2
;BEFORE_LAYER_CHANGE
G92 E0.0
;5




;WIPE_START
G1 F5760
G1 X129.955 Y99.651 E-.02185
G1 X130.019 Y99.688 E-.02185
G1 X130.04 Y99.651 E-.01262
;WIPE_END
G1 E-1.14368 F1800
G1 Z5 F7200
;AFTER_LAYER_CHANGE
;5
G1 X120.04 Y109.651
M73 P41 R0
G1 E1.2 F1800
M204 S800
M73 Q41 S0
G1 F1200
